licenses/MIT.svg

<svg width="103" height="21" viewBox="0 0 103 21" fill="none" xmlns="http://www.w3.org/2000/svg">
<g clip-path="url(#clip0_2011_59)">
<rect width="103" height="21" rx="5" fill="black"/>
<g filter="url(#filter0_d_2011_59)">
<g clip-path="url(#clip1_2011_59)">
<path d="M16.4133 7.64V6.84H18.7067H21V7.64V8.44H18.7067H16.4133V7.64Z" fill="white"/>
<path d="M13.5333 7.64V6.84H14.3867H15.24V7.64V8.44H14.3867H13.5333V7.64Z" fill="white"/>
<path d="M7.88 9.66666V6.84H8.73333H9.58667V9.66666V12.4933H8.73333H7.88V9.66666Z" fill="white"/>
<path d="M16.4133 12.3333V9.50667H17.2667H18.12V12.3333V15.16H17.2667H16.4133L16.4133 12.3333Z" fill="white"/>
<path d="M13.5333 12.3333V9.50667H14.3867H15.24V12.3333V15.16H14.3867H13.5333V12.3333Z" fill="white"/>
<path d="M10.6533 11V6.84H11.5067H12.36V11V15.16H11.5067H10.6533V11Z" fill="white"/>
<path d="M5 11V6.84H5.85333H6.70667V11V15.16H5.85333H5V11Z" fill="white"/>
</g>
</g>
<g filter="url(#filter1_d_2011_59)">
<path d="M24.0387 15.5V6.04545H25.4652V14.272H29.7493V15.5H24.0387ZM31.2658 15.5V8.40909H32.6461V15.5H31.2658ZM31.9629 7.31498C31.7228 7.31498 31.5166 7.23497 31.3443 7.07493C31.175 6.91181 31.0904 6.71792 31.0904 6.49325C31.0904 6.26551 31.175 6.07161 31.3443 5.91158C31.5166 5.74846 31.7228 5.6669 31.9629 5.6669C32.2029 5.6669 32.4076 5.74846 32.5769 5.91158C32.7492 6.07161 32.8354 6.26551 32.8354 6.49325C32.8354 6.71792 32.7492 6.91181 32.5769 7.07493C32.4076 7.23497 32.2029 7.31498 31.9629 7.31498ZM37.49 15.6431C36.8036 15.6431 36.2127 15.4877 35.7172 15.1768C35.2248 14.8629 34.8463 14.4305 34.5816 13.8796C34.3169 13.3287 34.1846 12.6978 34.1846 11.9869C34.1846 11.2667 34.32 10.6312 34.5908 10.0803C34.8616 9.52628 35.2433 9.09387 35.7357 8.78302C36.2281 8.47218 36.8083 8.31676 37.4761 8.31676C38.0147 8.31676 38.4948 8.41678 38.9165 8.61683C39.3381 8.8138 39.6782 9.09079 39.9367 9.4478C40.1983 9.8048 40.3537 10.2218 40.403 10.6989H39.0596C38.9857 10.3665 38.8164 10.0803 38.5518 9.8402C38.2902 9.60014 37.9393 9.48011 37.4992 9.48011C37.1145 9.48011 36.7775 9.58167 36.4882 9.7848C36.202 9.98485 35.9788 10.2711 35.8188 10.6435C35.6588 11.0128 35.5787 11.4498 35.5787 11.9545C35.5787 12.4716 35.6572 12.9178 35.8142 13.2933C35.9711 13.6688 36.1927 13.9596 36.479 14.1658C36.7683 14.372 37.1083 14.4751 37.4992 14.4751C37.7608 14.4751 37.9978 14.4274 38.2101 14.332C38.4256 14.2335 38.6056 14.0935 38.7503 13.9119C38.898 13.7303 39.0011 13.5118 39.0596 13.2564H40.403C40.3537 13.715 40.2045 14.1243 39.9552 14.4844C39.7059 14.8445 39.3719 15.1276 38.9534 15.3338C38.5379 15.54 38.0501 15.6431 37.49 15.6431ZM44.9352 15.6431C44.2366 15.6431 43.6349 15.4938 43.1301 15.1953C42.6285 14.8937 42.2407 14.4705 41.9668 13.9258C41.696 13.378 41.5605 12.7363 41.5605 12.0007C41.5605 11.2744 41.696 10.6342 41.9668 10.0803C42.2407 9.52628 42.6223 9.09387 43.1117 8.78302C43.6041 8.47218 44.1796 8.31676 44.8382 8.31676C45.2383 8.31676 45.6261 8.38293 46.0016 8.51527C46.3771 8.64761 46.7141 8.85535 47.0126 9.13849C47.3111 9.42164 47.5466 9.78942 47.7189 10.2418C47.8913 10.6912 47.9774 11.2375 47.9774 11.8807V12.37H42.3407V11.3359H46.6248C46.6248 10.9728 46.551 10.6512 46.4032 10.3711C46.2555 10.0879 46.0478 9.86482 45.78 9.7017C45.5153 9.53859 45.2045 9.45703 44.8475 9.45703C44.4597 9.45703 44.1211 9.55244 43.8318 9.74325C43.5456 9.93099 43.324 10.1772 43.1671 10.4819C43.0132 10.7835 42.9363 11.1113 42.9363 11.4652V12.2731C42.9363 12.747 43.0193 13.1502 43.1855 13.4826C43.3548 13.815 43.5903 14.0689 43.8919 14.2443C44.1935 14.4167 44.5459 14.5028 44.949 14.5028C45.2106 14.5028 45.4492 14.4659 45.6646 14.392C45.88 14.3151 46.0662 14.2012 46.2232 14.0504C46.3801 13.8996 46.5002 13.7134 46.5833 13.4918L47.8897 13.7273C47.7851 14.112 47.5974 14.449 47.3265 14.7383C47.0588 15.0245 46.7218 15.2476 46.3155 15.4077C45.9123 15.5646 45.4522 15.6431 44.9352 15.6431ZM50.8893 11.2898V15.5H49.509V8.40909H50.8339V9.56321H50.9216C51.0847 9.18773 51.3402 8.88612 51.6879 8.65838C52.0388 8.43063 52.4804 8.31676 53.0129 8.31676C53.4961 8.31676 53.9192 8.41832 54.2824 8.62145C54.6456 8.82149 54.9272 9.12003 55.1272 9.51704C55.3273 9.91406 55.4273 10.4049 55.4273 10.9897V15.5H54.047V11.1559C54.047 10.6419 53.9131 10.2403 53.6453 9.95099C53.3776 9.65862 53.0098 9.51243 52.542 9.51243C52.2219 9.51243 51.9372 9.58167 51.6879 9.72017C51.4417 9.85866 51.2463 10.0618 51.1016 10.3295C50.9601 10.5942 50.8893 10.9143 50.8893 11.2898ZM62.5921 10.1403L61.341 10.3619C61.2887 10.2018 61.2056 10.0495 61.0917 9.90483C60.9809 9.76018 60.8301 9.64169 60.6393 9.54936C60.4485 9.45703 60.2099 9.41086 59.9237 9.41086C59.5329 9.41086 59.2066 9.49858 58.945 9.674C58.6834 9.84635 58.5526 10.0695 58.5526 10.3434C58.5526 10.5804 58.6403 10.7712 58.8158 10.9158C58.9912 11.0605 59.2743 11.179 59.6652 11.2713L60.7916 11.5298C61.4441 11.6806 61.9304 11.913 62.2504 12.2269C62.5705 12.5408 62.7305 12.9486 62.7305 13.4503C62.7305 13.875 62.6074 14.2535 62.3612 14.5859C62.1181 14.9152 61.778 15.1738 61.341 15.3615C60.907 15.5492 60.4038 15.6431 59.8314 15.6431C59.0374 15.6431 58.3895 15.4738 57.8879 15.1353C57.3862 14.7937 57.0784 14.3089 56.9646 13.6811L58.2987 13.478C58.3818 13.8258 58.5526 14.0889 58.8112 14.2674C59.0697 14.4428 59.4067 14.5305 59.8222 14.5305C60.2746 14.5305 60.6362 14.4367 60.907 14.2489C61.1779 14.0581 61.3133 13.8258 61.3133 13.5518C61.3133 13.3303 61.2302 13.1441 61.064 12.9932C60.9009 12.8424 60.6501 12.7286 60.3115 12.6516L59.1112 12.3885C58.4495 12.2377 57.9602 11.9976 57.6432 11.6683C57.3293 11.339 57.1723 10.922 57.1723 10.4173C57.1723 9.9987 57.2893 9.63245 57.5232 9.31853C57.7571 9.00461 58.0802 8.75994 58.4926 8.58451C58.905 8.40601 59.3774 8.31676 59.9099 8.31676C60.6762 8.31676 61.2794 8.48295 61.7195 8.81534C62.1596 9.14465 62.4505 9.58629 62.5921 10.1403ZM67.3043 15.6431C66.6057 15.6431 66.004 15.4938 65.4993 15.1953C64.9976 14.8937 64.6098 14.4705 64.3359 13.9258C64.0651 13.378 63.9297 12.7363 63.9297 12.0007C63.9297 11.2744 64.0651 10.6342 64.3359 10.0803C64.6098 9.52628 64.9915 9.09387 65.4808 8.78302C65.9732 8.47218 66.5488 8.31676 67.2074 8.31676C67.6075 8.31676 67.9953 8.38293 68.3707 8.51527C68.7462 8.64761 69.0832 8.85535 69.3817 9.13849C69.6803 9.42164 69.9157 9.78942 70.0881 10.2418C70.2604 10.6912 70.3466 11.2375 70.3466 11.8807V12.37H64.7099V11.3359H68.9939C68.9939 10.9728 68.9201 10.6512 68.7724 10.3711C68.6246 10.0879 68.4169 9.86482 68.1491 9.7017C67.8845 9.53859 67.5736 9.45703 67.2166 9.45703C66.8288 9.45703 66.4903 9.55244 66.201 9.74325C65.9148 9.93099 65.6932 10.1772 65.5362 10.4819C65.3823 10.7835 65.3054 11.1113 65.3054 11.4652V12.2731C65.3054 12.747 65.3885 13.1502 65.5547 13.4826C65.7239 13.815 65.9594 14.0689 66.261 14.2443C66.5626 14.4167 66.915 14.5028 67.3182 14.5028C67.5798 14.5028 67.8183 14.4659 68.0337 14.392C68.2492 14.3151 68.4354 14.2012 68.5923 14.0504C68.7493 13.8996 68.8693 13.7134 68.9524 13.4918L70.2589 13.7273C70.1542 14.112 69.9665 14.449 69.6957 14.7383C69.4279 15.0245 69.0909 15.2476 68.6846 15.4077C68.2815 15.5646 67.8214 15.6431 67.3043 15.6431Z" fill="#E8E8E8"/>
<path d="M73.7155 6.04545H76.5454L78.946 11.8991H79.0568L81.4574 6.04545H84.2873V15.5H82.0621V9.69247H81.9836L79.7123 15.44H78.2905L76.0192 9.66015H75.9407V15.5H73.7155V6.04545ZM87.9978 6.04545V15.5H85.7126V6.04545H87.9978ZM89.123 7.90128V6.04545H97.1141V7.90128H94.2473V15.5H91.9945V7.90128H89.123Z" fill="white"/>
</g>
</g>
<rect x="0.6" y="0.6" width="101.8" height="19.8" rx="4.4" stroke="url(#paint0_linear_2011_59)" stroke-opacity="0.88" stroke-width="1.2"/>
<defs>
<filter id="filter0_d_2011_59" x="-0.600282" y="-3.10028" width="27.2006" height="27.7006" filterUnits="userSpaceOnUse" color-interpolation-filters="sRGB">
<feFlood flood-opacity="0" result="BackgroundImageFix"/>
<feColorMatrix in="SourceAlpha" type="matrix" values="0 0 0 0 0 0 0 0 0 0 0 0 0 0 0 0 0 0 127 0" result="hardAlpha"/>
<feOffset/>
<feGaussianBlur stdDeviation="2.80014"/>
<feComposite in2="hardAlpha" operator="out"/>
<feColorMatrix type="matrix" values="0 0 0 0 0 0 0 0 0 0 0 0 0 0 0 0 0 0 0.25 0"/>
<feBlend mode="normal" in2="BackgroundImageFix" result="effect1_dropShadow_2011_59"/>
<feBlend mode="normal" in="SourceGraphic" in2="effect1_dropShadow_2011_59" result="shape"/>
</filter>
<filter id="filter1_d_2011_59" x="17.2857" y="-3.21429" width="86.4285" height="27.4286" filterUnits="userSpaceOnUse" color-interpolation-filters="sRGB">
<feFlood flood-opacity="0" result="BackgroundImageFix"/>
<feColorMatrix in="SourceAlpha" type="matrix" values="0 0 0 0 0 0 0 0 0 0 0 0 0 0 0 0 0 0 127 0" result="hardAlpha"/>
<feOffset/>
<feGaussianBlur stdDeviation="2.85714"/>
<feComposite in2="hardAlpha" operator="out"/>
<feColorMatrix type="matrix" values="0 0 0 0 0 0 0 0 0 0 0 0 0 0 0 0 0 0 0.25 0"/>
<feBlend mode="normal" in2="BackgroundImageFix" result="effect1_dropShadow_2011_59"/>
<feBlend mode="normal" in="SourceGraphic" in2="effect1_dropShadow_2011_59" result="shape"/>
</filter>
<linearGradient id="paint0_linear_2011_59" x1="0" y1="10.5" x2="103" y2="10.5" gradientUnits="userSpaceOnUse">
<stop stop-color="#A31F34"/>
<stop offset="0.495" stop-color="#93646F"/>
<stop offset="1" stop-color="#A31F34"/>
</linearGradient>
<clipPath id="clip0_2011_59">
<rect width="103" height="21" rx="5" fill="white"/>
</clipPath>
<clipPath id="clip1_2011_59">
<rect width="16" height="16" fill="white" transform="translate(5 3)"/>
</clipPath>
</defs>
</svg>

<svg xmlns="http://www.w3.org/2000/svg" width="103" height="21" fill="none"><g clip-path="url(#a)"><rect width="103" height="21" fill="#000" rx="5"/><g filter="url(#b)"><g fill="#fff" clip-path="url(#c)"><path d="M16.41 7.64v-.8H21v1.6h-4.59v-.8Zm-2.88 0v-.8h1.71v1.6h-1.71v-.8ZM7.88 9.67V6.84h1.71v5.65H7.88V9.67Zm8.53 2.66V9.51h1.71v5.65h-1.71v-2.83Zm-2.88 0V9.51h1.71v5.65h-1.71v-2.83ZM10.65 11V6.84h1.71v8.32h-1.71V11ZM5 11V6.84h1.71v8.32H5V11Z"/></g></g><g filter="url(#d)"><path fill="#E8E8E8" d="M24.04 15.5V6.05h1.43v8.22h4.28v1.23h-5.71Zm7.23 0V8.4h1.38v7.1h-1.38Zm.7-8.19a.88.88 0 0 1-.63-.24.78.78 0 0 1-.25-.58c0-.22.09-.42.25-.58a.87.87 0 0 1 .62-.24c.24 0 .45.08.62.24.17.16.26.36.26.58a.86.86 0 0 1-.87.82Zm5.52 8.33c-.69 0-1.28-.15-1.77-.46-.5-.32-.87-.75-1.14-1.3a4.32 4.32 0 0 1-.4-1.9c0-.71.14-1.35.41-1.9a3.1 3.1 0 0 1 1.15-1.3 3.2 3.2 0 0 1 1.74-.46c.53 0 1.01.1 1.44.3a2.51 2.51 0 0 1 1.49 2.08h-1.35a1.61 1.61 0 0 0-.5-.86 1.5 1.5 0 0 0-1.06-.36c-.39 0-.72.1-1.01.3a2 2 0 0 0-.67.86 3.3 3.3 0 0 0-.24 1.31c0 .52.08.97.23 1.34.16.38.38.67.67.88.29.2.63.3 1.02.3.26 0 .5-.04.71-.14.22-.1.4-.24.54-.42.15-.18.25-.4.31-.65h1.34a2.58 2.58 0 0 1-1.45 2.08c-.41.2-.9.3-1.46.3Zm7.45 0c-.7 0-1.3-.15-1.81-.44-.5-.3-.89-.73-1.16-1.27a4.3 4.3 0 0 1-.41-1.93c0-.73.14-1.37.4-1.92.28-.55.66-.99 1.15-1.3A3.47 3.47 0 0 1 46 8.51a2.82 2.82 0 0 1 1.72 1.73c.17.45.26 1 .26 1.64v.49h-5.64v-1.03h4.28c0-.37-.07-.69-.22-.97a1.67 1.67 0 0 0-1.55-.91c-.39 0-.73.1-1.02.28a2.06 2.06 0 0 0-.89 1.73v.8c0 .48.08.88.25 1.21.16.33.4.59.7.76.3.18.66.26 1.06.26.26 0 .5-.03.71-.1a1.48 1.48 0 0 0 .92-.9l1.31.23a2.58 2.58 0 0 1-1.57 1.68c-.4.15-.87.23-1.38.23Zm5.95-4.35v4.21H49.5V8.4h1.32v1.16h.1c.15-.37.41-.67.76-.9.35-.23.79-.34 1.32-.34.49 0 .9.1 1.27.3.37.2.65.5.85.9.2.4.3.88.3 1.47v4.51h-1.38v-4.34c0-.52-.14-.92-.4-1.2-.27-.3-.64-.45-1.1-.45-.33 0-.61.07-.86.21a1.5 1.5 0 0 0-.59.6c-.14.27-.21.6-.21.97Zm11.7-1.15-1.25.22a1.48 1.48 0 0 0-.25-.46 1.23 1.23 0 0 0-.45-.35c-.2-.1-.43-.14-.72-.14-.39 0-.71.09-.98.26-.26.18-.39.4-.39.67 0 .24.09.43.27.58.17.14.45.26.85.35l1.12.26c.65.15 1.14.38 1.46.7.32.31.48.72.48 1.22 0 .43-.12.8-.37 1.14-.24.33-.58.58-1.02.77-.43.19-.94.28-1.5.28a3.4 3.4 0 0 1-1.95-.5 2.2 2.2 0 0 1-.93-1.46l1.34-.2c.08.35.25.6.51.79.26.17.6.26 1.01.26.45 0 .82-.1 1.09-.28.27-.2.4-.42.4-.7 0-.22-.08-.4-.25-.56a1.63 1.63 0 0 0-.75-.34l-1.2-.26a2.88 2.88 0 0 1-1.47-.72 1.74 1.74 0 0 1-.47-1.25c0-.42.12-.79.35-1.1.24-.32.56-.56.97-.74a3.7 3.7 0 0 1 1.42-.26c.77 0 1.37.16 1.8.5.45.32.74.77.88 1.32Zm4.71 5.5a3.04 3.04 0 0 1-2.97-1.72 4.3 4.3 0 0 1-.4-1.92c0-.73.14-1.37.4-1.92.28-.55.66-.99 1.15-1.3a3.47 3.47 0 0 1 2.89-.27 2.82 2.82 0 0 1 1.72 1.73c.17.45.26 1 .26 1.64v.49H64.7v-1.03h4.28c0-.37-.07-.69-.22-.97a1.68 1.68 0 0 0-1.55-.91c-.4 0-.73.1-1.02.28a2.03 2.03 0 0 0-.89 1.73v.8c0 .48.08.88.24 1.21.17.33.4.59.71.76.3.18.66.26 1.06.26.26 0 .5-.03.71-.1a1.48 1.48 0 0 0 .92-.9l1.3.23a2.54 2.54 0 0 1-1.57 1.68c-.4.15-.86.23-1.38.23Z"/><path fill="#fff" d="M73.72 6.05h2.83l2.4 5.85h.1l2.4-5.85h2.84v9.45h-2.23V9.7h-.08l-2.27 5.74H78.3l-2.27-5.78h-.08v5.84h-2.22V6.05Zm14.28 0v9.45h-2.3V6.05H88Zm1.12 1.85V6.05h8V7.9h-2.87v7.6h-2.26V7.9h-2.87Z"/></g></g><rect width="101.8" height="19.8" x=".6" y=".6" stroke="url(#e)" stroke-opacity=".88" stroke-width="1.2" rx="4.4"/><defs><clipPath id="a"><rect width="103" height="21" fill="#fff" rx="5"/></clipPath><clipPath id="c"><path fill="#fff" d="M5 3h16v16H5z"/></clipPath><filter id="b" width="27.2" height="27.7" x="-.6" y="-3.1" color-interpolation-filters="sRGB" filterUnits="userSpaceOnUse"><feFlood flood-opacity="0" result="BackgroundImageFix"/><feColorMatrix in="SourceAlpha" result="hardAlpha" values="0 0 0 0 0 0 0 0 0 0 0 0 0 0 0 0 0 0 127 0"/><feOffset/><feGaussianBlur stdDeviation="2.8"/><feComposite in2="hardAlpha" operator="out"/><feColorMatrix values="0 0 0 0 0 0 0 0 0 0 0 0 0 0 0 0 0 0 0.25 0"/><feBlend in2="BackgroundImageFix" result="effect1_dropShadow_2011_59"/><feBlend in="SourceGraphic" in2="effect1_dropShadow_2011_59" result="shape"/></filter><filter id="d" width="86.43" height="27.43" x="17.29" y="-3.21" color-interpolation-filters="sRGB" filterUnits="userSpaceOnUse"><feFlood flood-opacity="0" result="BackgroundImageFix"/><feColorMatrix in="SourceAlpha" result="hardAlpha" values="0 0 0 0 0 0 0 0 0 0 0 0 0 0 0 0 0 0 127 0"/><feOffset/><feGaussianBlur stdDeviation="2.86"/><feComposite in2="hardAlpha" operator="out"/><feColorMatrix values="0 0 0 0 0 0 0 0 0 0 0 0 0 0 0 0 0 0 0.25 0"/><feBlend in2="BackgroundImageFix" result="effect1_dropShadow_2011_59"/><feBlend in="SourceGraphic" in2="effect1_dropShadow_2011_59" result="shape"/></filter><linearGradient id="e" x1="0" x2="103" y1="10.5" y2="10.5" gradientUnits="userSpaceOnUse"><stop stop-color="#A31F34"/><stop offset=".49" stop-color="#93646F"/><stop offset="1" stop-color="#A31F34"/></linearGradient></defs></svg>
